X:2
T:Dans le soleil ou le brouillard - T85
M:6/8
K:F
"Fa"AGF "Do"G3|"Rem"FED "Lam"E3|"Sib"DEF B3|"Solm"AGF "Do"G3|[M:9/8]"Fa"A2c "Do"GAG "Rem"FED|[M:6/8]"La"E2^C A,3|
"Sib"D2E F2A|"Do"GFE "Fa"F3-|F3 DDE|"Rem"F2F E2D|"Lam"E3 E3|"Rem"D2E F2A|"Sol"G3 F2E|
"Sib"D3 "Do"C3|"Rem"D3 FFG|"Rem"A2A G2F|"Sol"G3 G3|"Sib"B2B A2G|"Rem"F3 E2D|"Fa"F3 "Sol"G3|\
"La C7"A6||
